static/logos/pinterest-wordmark-color.svg

<svg width="100" height="25" viewBox="0 0 100 25" fill="none" xmlns="http://www.w3.org/2000/svg">
<g clip-path="url(#clip0_1_1689)">
<path d="M39.3828 8.80696H42.5407V18.7261H39.3828V8.80696Z" fill="#E60023"/>
<path d="M43.2031 8.80696H46.2448V10.1631H46.3028C47.0391 9.0975 47.9883 8.51642 49.364 8.51642C51.5337 8.51642 52.8123 10.0662 52.8123 12.2748V18.7261H49.6545V12.9142C49.6545 11.8679 49.1314 11.1511 48.1046 11.1511C47.0585 11.1511 46.361 12.023 46.361 13.2435V18.7261H43.2031V8.80696Z" fill="#E60023"/>
<path d="M42.8588 6.1532C42.8588 5.10697 42.0107 4.25894 40.9645 4.25894C39.9184 4.25894 39.0703 5.10697 39.0703 6.1532C39.0703 7.19933 39.9184 8.04738 40.9645 8.04738C42.0107 8.04738 42.8588 7.19933 42.8588 6.1532Z" fill="#E60023"/>
<path d="M75.021 8.66372C74.9309 8.65559 74.8276 8.65199 74.7067 8.65199C73.5055 8.65199 72.6919 9.17506 71.9944 10.3568H71.9363V8.80696H68.9141V18.726H72.0719V14.2702C72.0719 12.2056 73.2153 11.2489 75.021 11.4159V8.66372Z" fill="#E60023"/>
<path d="M90.5207 12.4684C89.2611 12.236 88.1376 12.1392 88.1376 11.4418C88.1376 10.8217 88.7381 10.5312 89.5129 10.5312C90.3847 10.5312 90.9851 10.8024 91.1016 11.6936H94.0078C93.853 9.73691 92.3417 8.51634 89.5324 8.51634C87.1884 8.51634 85.251 9.60125 85.251 11.6936C85.251 14.0183 87.0915 14.4833 88.8155 14.774C90.1329 15.0065 91.3339 15.1033 91.3339 15.9945C91.3339 16.6338 90.7334 16.9825 89.7842 16.9825C88.8319 16.9825 88.2017 16.5796 88.0086 15.762H85C85.2213 17.8011 87.0109 19.036 89.8037 19.036C92.3995 19.036 94.3174 17.9124 94.3174 15.7427C94.3174 13.2047 92.2643 12.7591 90.5207 12.4684Z" fill="#E60023"/>
<path d="M79.9193 10.7636C80.9458 10.7636 81.6816 11.5192 81.7981 12.7011H77.8848C78.0978 11.5192 78.7175 10.7636 79.9193 10.7636ZM80.0936 16.75C78.7949 16.75 78.0591 15.917 77.8653 14.5801H84.9951C85.0139 12.5654 84.4329 10.8411 83.2516 9.75629C82.3985 8.98139 81.275 8.51634 79.8606 8.51634C76.8386 8.51634 74.7656 10.783 74.7656 13.7472C74.7656 16.75 76.7805 19.0167 80.0545 19.0167C81.3141 19.0167 82.3211 18.6874 83.1546 18.1062C84.0264 17.5056 84.6073 16.6532 84.8207 15.7621H81.7402C81.4689 16.3819 80.9263 16.75 80.0936 16.75Z" fill="#E60023"/>
<path d="M99.8802 16.3871C99.734 16.3929 99.537 16.4014 99.3564 16.4014C98.6785 16.4014 98.2524 16.2076 98.2524 15.4327V10.783H99.8802V8.80696H98.2524V5.66848H95.1719V8.80696H94.2031V10.783H95.1719V16.1107C95.1719 18.2419 96.4893 18.8424 98.3298 18.8424C99.0319 18.8424 99.5628 18.7898 99.8802 18.7279V16.3871Z" fill="#E60023"/>
<path d="M58.455 16.3916C58.3291 16.3965 58.1836 16.4014 58.0477 16.4014C57.3698 16.4014 56.9434 16.2076 56.9434 15.4327V10.783H58.455V8.80696H56.9434V5.66848H53.8631V8.80696H52.8359V10.783H53.8631V16.1107C53.8631 18.2419 55.1805 18.8424 57.021 18.8424C57.6438 18.8424 58.1313 18.8009 58.455 18.7484V16.3916Z" fill="#E60023"/>
<path d="M65.3295 12.701C65.2132 11.5192 64.4769 10.7636 63.4501 10.7636C62.249 10.7636 61.6291 11.5192 61.416 12.701H65.3295ZM58.2969 13.7471C58.2969 10.783 60.3698 8.51642 63.3921 8.51642C64.8063 8.51642 65.93 8.98131 66.7824 9.75629C67.9642 10.8412 68.5454 12.5654 68.526 14.5802H61.3967C61.5903 15.917 62.3265 16.75 63.6246 16.75C64.4575 16.75 65.0001 16.3819 65.2712 15.762H68.3516C68.1385 16.6532 67.5574 17.5056 66.6855 18.1063C65.8525 18.6873 64.8451 19.0167 63.5858 19.0167C60.3117 19.0167 58.2969 16.75 58.2969 13.7471Z" fill="#E60023"/>
<path d="M33.9001 11.3837C35.14 11.3837 35.8375 10.6475 35.8375 9.54308C35.8375 8.43886 35.1206 7.7608 33.9001 7.7608H31.4783V11.3837H33.9001ZM28.2812 4.87418H33.7651C35.4504 4.87418 36.6904 5.33909 37.5428 6.15282C38.434 6.98579 38.9378 8.16763 38.9378 9.56247C38.9378 12.2167 37.0973 14.0959 34.2494 14.0959H31.4783V18.7261H28.2812V4.87418Z" fill="#E60023"/>
<path d="M23.9468 12.2166C23.9468 18.8013 18.6088 24.1392 12.0242 24.1392C5.43952 24.1392 0.101562 18.8013 0.101562 12.2166C0.101562 5.63185 5.43952 0.293989 12.0242 0.293989C18.6088 0.293989 23.9468 5.63185 23.9468 12.2166Z" fill="white"/>
<path d="M12.0242 0.29397C5.43952 0.29397 0.101562 5.63193 0.101562 12.2166C0.101562 17.2676 3.24416 21.5855 7.67926 23.3227C7.57508 22.3794 7.48086 20.9286 7.7206 19.8988C7.93724 18.9683 9.11863 13.9726 9.11863 13.9726C9.11863 13.9726 8.76202 13.2583 8.76202 12.2024C8.76202 10.5446 9.72293 9.30688 10.9194 9.30688C11.9366 9.30688 12.4279 10.0705 12.4279 10.9863C12.4279 12.0093 11.7766 13.5387 11.4405 14.956C11.1596 16.1427 12.0356 17.1104 13.206 17.1104C15.325 17.1104 16.954 14.8761 16.954 11.6508C16.954 8.79609 14.9028 6.80023 11.9738 6.80023C8.58141 6.80023 6.59022 9.34472 6.59022 11.9743C6.59022 12.999 6.98497 14.0978 7.47754 14.6952C7.57498 14.8132 7.58925 14.9167 7.56022 15.0371C7.46972 15.4137 7.26859 16.2235 7.2291 16.3893C7.17711 16.6075 7.05631 16.6538 6.83036 16.5486C5.3413 15.8555 4.4103 13.6784 4.4103 11.9298C4.4103 8.16888 7.1429 4.7149 12.2881 4.7149C16.4239 4.7149 19.6381 7.66213 19.6381 11.6009C19.6381 15.7099 17.0473 19.0167 13.4513 19.0167C12.2432 19.0167 11.1074 18.3891 10.7186 17.6477C10.7186 17.6477 10.1208 19.9241 9.97586 20.4819C9.70674 21.5175 8.98008 22.8156 8.49408 23.6075C9.60956 23.9529 10.7951 24.1392 12.0242 24.1392C18.6089 24.1392 23.9469 18.8012 23.9469 12.2166C23.9469 5.63193 18.6089 0.29397 12.0242 0.29397Z" fill="#E60023"/>
</g>
<defs>
<clipPath id="clip0_1_1689">
<rect width="100" height="24.4722" fill="white"/>
</clipPath>
</defs>
</svg>

<svg xmlns="http://www.w3.org/2000/svg" width="256" height="64" fill="none" viewBox="0 0 100 25"><g clip-path="url(#a)"><path fill="#E60023" d="M39.383 8.807h3.158v9.92h-3.158v-9.92ZM43.203 8.807h3.042v1.356h.058c.736-1.066 1.685-1.647 3.061-1.647 2.17 0 3.448 1.55 3.448 3.759v6.451h-3.157v-5.812c0-1.046-.524-1.763-1.55-1.763-1.046 0-1.744.872-1.744 2.092v5.483h-3.158V8.807ZM42.859 6.153a1.894 1.894 0 1 0-3.789 0 1.894 1.894 0 0 0 3.789 0ZM75.021 8.664a3.539 3.539 0 0 0-.314-.012c-1.201 0-2.015.523-2.713 1.705h-.058v-1.55h-3.022v9.919h3.158V14.27c0-2.064 1.143-3.021 2.949-2.854V8.664ZM90.52 12.468c-1.259-.232-2.382-.329-2.382-1.026 0-.62.6-.91 1.375-.91.872 0 1.472.27 1.589 1.162h2.906c-.155-1.957-1.666-3.178-4.476-3.178-2.344 0-4.281 1.085-4.281 3.178 0 2.324 1.84 2.79 3.564 3.08 1.318.233 2.519.33 2.519 1.22 0 .64-.6.989-1.55.989-.952 0-1.582-.403-1.775-1.221H85c.221 2.04 2.01 3.274 4.804 3.274 2.596 0 4.513-1.124 4.513-3.293 0-2.538-2.053-2.984-3.796-3.275ZM79.92 10.764c1.026 0 1.762.755 1.878 1.937h-3.913c.213-1.182.832-1.937 2.034-1.937Zm.174 5.986c-1.3 0-2.035-.833-2.229-2.17h7.13c.019-2.015-.562-3.739-1.743-4.824-.853-.775-1.977-1.24-3.391-1.24-3.022 0-5.095 2.267-5.095 5.231 0 3.003 2.014 5.27 5.288 5.27 1.26 0 2.267-.33 3.1-.91.872-.601 1.453-1.454 1.667-2.345h-3.08c-.272.62-.815.988-1.647.988ZM99.88 16.387c-.146.006-.343.014-.524.014-.677 0-1.104-.193-1.104-.968v-4.65h1.628V8.807h-1.628V5.668h-3.08v3.139h-.969v1.976h.969v5.328c0 2.13 1.317 2.731 3.158 2.731.702 0 1.233-.052 1.55-.114v-2.34ZM58.455 16.392c-.126.005-.271.01-.407.01-.678 0-1.105-.194-1.105-.97v-4.649h1.512V8.807h-1.512V5.668h-3.08v3.139h-1.027v1.976h1.027v5.328c0 2.13 1.318 2.731 3.158 2.731.623 0 1.11-.041 1.434-.094v-2.356Z"/><path fill="#E60023" d="M65.33 12.701c-.117-1.182-.853-1.937-1.88-1.937-1.201 0-1.82.755-2.034 1.937h3.913Zm-7.033 1.046c0-2.964 2.073-5.23 5.095-5.23 1.414 0 2.538.464 3.39 1.24 1.182 1.084 1.763 2.808 1.744 4.823h-7.13c.194 1.337.93 2.17 2.229 2.17.832 0 1.375-.368 1.646-.988h3.08c-.213.891-.794 1.744-1.665 2.344-.834.581-1.84.91-3.1.91-3.274 0-5.29-2.266-5.29-5.269ZM33.9 11.384c1.24 0 1.938-.736 1.938-1.84 0-1.105-.717-1.783-1.938-1.783h-2.422v3.623H33.9Zm-5.619-6.51h5.484c1.685 0 2.925.465 3.778 1.279.891.833 1.395 2.015 1.395 3.41 0 2.654-1.84 4.533-4.689 4.533h-2.77v4.63H28.28V4.874Z"/><path fill="#fff" d="M23.947 12.217c0 6.584-5.338 11.922-11.923 11.922C5.44 24.14.102 18.801.102 12.217.102 5.632 5.44.294 12.024.294c6.585 0 11.923 5.338 11.923 11.923Z"/><path fill="#E60023" d="M12.024.294C5.44.294.102 5.632.102 12.217c0 5.05 3.142 9.368 7.577 11.106-.104-.944-.198-2.394.042-3.424.216-.93 1.398-5.926 1.398-5.926s-.357-.715-.357-1.77c0-1.658.96-2.896 2.157-2.896 1.018 0 1.509.763 1.509 1.68 0 1.022-.651 2.552-.988 3.969-.28 1.187.596 2.154 1.766 2.154 2.119 0 3.748-2.234 3.748-5.46 0-2.854-2.051-4.85-4.98-4.85-3.393 0-5.384 2.545-5.384 5.174 0 1.025.395 2.124.888 2.721a.356.356 0 0 1 .082.342c-.09.377-.291 1.187-.33 1.352-.053.219-.174.265-.4.16-1.489-.694-2.42-2.87-2.42-4.62 0-3.76 2.733-7.214 7.878-7.214 4.136 0 7.35 2.947 7.35 6.886 0 4.109-2.59 7.416-6.187 7.416-1.208 0-2.344-.628-2.732-1.37 0 0-.598 2.277-.743 2.835-.27 1.035-.996 2.334-1.482 3.126 1.116.345 2.301.531 3.53.531 6.585 0 11.923-5.338 11.923-11.922 0-6.585-5.338-11.923-11.923-11.923Z"/></g><defs><clipPath id="a"><path fill="#fff" d="M0 0h100v24.472H0z"/></clipPath></defs></svg>
